icon/hi/tag-outline.svg

<svg viewBox="0 0 24 24" fill="none" xmlns="http://www.w3.org/2000/svg" height="1em" width="1em">
  <path d="M7 7H7.01M7 3H12C12.5119 2.99999 13.0237 3.19525 13.4142 3.58579L20.4143 10.5858C21.1953 11.3668 21.1953 12.6332 20.4143 13.4142L13.4142 20.4142C12.6332 21.1953 11.3668 21.1953 10.5858 20.4142L3.58579 13.4142C3.19526 13.0237 3 12.5118 3 12V7C3 4.79086 4.79086 3 7 3Z" stroke="#4A5568" stroke-width="2" stroke-linecap="round" stroke-linejoin="round"/>
</svg>

<svg width="24" height="24" fill="none" xmlns="http://www.w3.org/2000/svg"><path d="M7 7h.01M7 3h5c.512 0 1.024.195 1.414.586l7 7a2 2 0 0 1 0 2.828l-7 7a2 2 0 0 1-2.828 0l-7-7A1.994 1.994 0 0 1 3 12V7a4 4 0 0 1 4-4Z" stroke="#4A5568" stroke-width="2" stroke-linecap="round" stroke-linejoin="round"/></svg>
